public/icons/picto-encours-S.svg

<?xml version="1.0" encoding="UTF-8"?>
<svg width="18px" height="18px" viewBox="0 0 18 18" version="1.1" xmlns="http://www.w3.org/2000/svg" xmlns:xlink="http://www.w3.org/1999/xlink">
    <!-- Generator: sketchtool 51.2 (57519) - http://www.bohemiancoding.com/sketch -->
    <title>8A4E6B99-7582-4B11-8677-945FA7F846F9</title>
    <desc>Created with sketchtool.</desc>
    <defs></defs>
    <g id="Portail-pro" stroke="none" stroke-width="1" fill="none" fill-rule="evenodd">
        <g id="Passculture-Pro-compta" transform="translate(-1137.000000, -610.000000)">
            <g id="PICTOS/picto-encours-S" transform="translate(1137.000000, 610.000000)">
                <rect id="Background" x="0" y="0" width="18" height="18"></rect>
                <path d="M9.7522341,9.44040679 L12.2066761,6.98596478 L11.4995693,6.278858 L9.04512732,8.73330001 L7.15591365,6.84408635 L6.44880687,7.55119313 L9.04527968,10.1476659 L9.75238646,9.44055916 Z M8,3.08295844 C5.16228666,3.55903653 3,6.02700371 3,9 C3,12.3137085 5.6862915,15 9,15 C12.3137085,15 15,12.3137085 15,9 C15,6.02700371 12.8377133,3.55903653 10,3.08295844 L10,2 L8,2 L8,3.08295844 Z M9,18 C4.02943725,18 0,13.9705627 0,9 C0,4.02943725 4.02943725,0 9,0 C13.9705627,0 18,4.02943725 18,9 C18,13.9705627 13.9705627,18 9,18 Z M9,14 C6.23857625,14 4,11.7614237 4,9 C4,6.23857625 6.23857625,4 9,4 C11.7614237,4 14,6.23857625 14,9 C14,11.7614237 11.7614237,14 9,14 Z" id="Combined-Shape" fill="#00BDCF"></path>
            </g>
        </g>
    </g>
</svg>

<svg width="18" height="18" viewBox="0 0 18 18" xmlns="http://www.w3.org/2000/svg"><g fill="none"><path d="M0 0h18v18H0z"/><path d="M9.752 9.44l2.455-2.454-.707-.707-2.455 2.454-1.89-1.889-.706.707 2.596 2.597.707-.707zM8 3.083A6.002 6.002 0 009 15a6 6 0 001-11.917V2H8v1.083zM9 18A9 9 0 119 0a9 9 0 010 18zm0-4A5 5 0 119 4a5 5 0 010 10z" fill="#00BDCF"/></g></svg>
